assets/dude/Design–Townes.svg

<svg width="489" height="116" viewBox="0 0 489 116" fill="none" xmlns="http://www.w3.org/2000/svg">
<path d="M68.9896 8.71996H65.3496C57.6496 8.71996 58.4896 0.459961 57.0896 0.459961C55.6896 0.459961 56.5296 8.71996 48.8296 8.71996H30.4896C22.7896 8.71996 23.6296 0.459961 22.2296 0.459961C20.8296 0.459961 21.6696 8.71996 13.9696 8.71996H6.26957C5.56957 8.71996 5.28957 8.99996 5.14957 9.41996C4.72957 10.54 0.80957 38.54 0.80957 42.74C0.80957 43.44 1.36957 44 2.06957 44H15.9296C16.6296 44 17.1896 44.56 17.1896 45.26V70.46C17.1896 71.16 16.6296 71.72 15.9296 71.72H2.06957C1.36957 71.72 0.80957 72.28 0.80957 72.98C0.80957 77.18 4.72957 105.18 5.14957 106.3C5.28957 106.72 5.56957 107 6.26957 107H13.9696C21.6696 107 20.8296 115.26 22.2296 115.26C23.6296 115.26 22.7896 107 30.4896 107H48.8296C56.5296 107 55.6896 115.26 57.0896 115.26C58.4896 115.26 57.6496 107 65.3496 107H68.9896C79.4896 107 84.5296 95.8 84.5296 72.98V42.74C84.5296 19.92 79.4896 8.71996 68.9896 8.71996ZM74.4496 60.8C74.4496 66.12 70.6696 70.6 65.7696 71.72H28.5296C27.8296 71.72 27.2696 71.16 27.2696 70.46V45.26C27.2696 44.56 27.8296 44 28.5296 44H65.7696C70.6696 45.12 74.4496 49.6 74.4496 54.92V60.8Z" fill="#FF1C31"/>
<path d="M123.097 8.71996C115.397 8.71996 116.237 0.459961 114.837 0.459961C113.437 0.459961 114.277 8.71996 106.577 8.71996H96.7774C96.0774 8.71996 95.7974 8.99996 95.6574 9.41996C95.2374 10.54 91.3174 38.54 91.3174 42.74C91.3174 43.44 91.8774 44 92.5774 44H106.437C107.137 44 107.697 44.56 107.697 45.26V70.46C107.697 71.16 107.137 71.72 106.437 71.72H92.5774C91.8774 71.72 91.3174 72.28 91.3174 72.98C91.3174 77.18 95.2374 105.18 95.6574 106.3C95.7974 106.72 96.0774 107 96.7774 107H106.577C114.277 107 113.437 115.26 114.837 115.26C116.237 115.26 115.397 107 123.097 107H142.697C150.397 107 149.557 115.26 150.957 115.26C152.357 115.26 151.517 107 159.217 107H169.017C169.717 107 169.997 106.72 170.137 106.3C170.557 105.18 174.477 77.88 174.477 73.68C174.477 69.48 173.917 65.84 173.917 65.84C173.917 65.14 173.357 64.58 172.657 64.58H165.377C164.677 64.58 164.117 65.14 164.117 65.84C164.117 69.34 161.317 71.72 157.817 71.72H119.037C118.337 71.72 117.777 71.16 117.777 70.46V62.9C117.777 62.2 118.337 61.64 119.037 61.64H130.237C130.937 61.64 131.497 62.2 131.497 62.9V64.16C131.497 64.86 132.057 65.42 132.757 65.42H151.657C152.357 65.42 152.917 64.86 152.917 64.16V51.56C152.917 50.86 152.357 50.3 151.657 50.3H132.757C132.057 50.3 131.497 50.86 131.497 51.56V52.82C131.497 53.52 130.937 54.08 130.237 54.08H119.037C118.337 54.08 117.777 53.52 117.777 52.82V45.26C117.777 44.56 118.337 44 119.037 44H157.817C161.317 44 164.117 46.38 164.117 49.88C164.117 50.58 164.677 51.14 165.377 51.14H172.657C173.357 51.14 173.917 50.58 173.917 49.88C173.917 49.88 174.477 46.24 174.477 42.04C174.477 37.84 170.557 10.54 170.137 9.41996C169.997 8.99996 169.717 8.71996 169.017 8.71996H159.217C151.517 8.71996 152.357 0.459961 150.957 0.459961C149.557 0.459961 150.397 8.71996 142.697 8.71996H123.097Z" fill="#FF1C31"/>
<path d="M201.575 47.78C201.575 45.68 203.675 44 205.775 44H238.535C242.035 44 244.835 46.38 244.835 49.88C244.835 50.58 245.395 51.14 246.095 51.14H253.375C254.075 51.14 254.635 50.58 254.635 49.88V42.74C254.635 19.92 249.595 8.71996 239.095 8.71996H227.055C219.495 8.71996 220.195 0.459961 218.795 0.459961C217.395 0.459961 218.095 8.71996 210.535 8.71996H198.215C187.715 8.71996 182.675 17.4 182.675 40.22C182.675 74.24 239.235 52.82 239.235 67.94C239.235 70.04 237.555 71.72 235.455 71.72H197.515C194.015 71.72 191.215 69.34 191.215 65.84C191.215 65.14 190.655 64.58 189.955 64.58H182.675C181.975 64.58 181.415 65.14 181.415 65.84V72.98C181.415 95.8 186.455 107 196.955 107H210.675C218.235 107 217.535 115.26 218.935 115.26C220.335 115.26 219.635 107 227.195 107H242.595C253.095 107 258.135 98.88 258.135 76.06V75.5C258.135 41.48 201.575 62.9 201.575 47.78Z" fill="#FF1C31"/>
<path d="M292.26 44H306.12C306.82 44 307.38 43.44 307.38 42.74C307.38 38.54 303.46 10.54 303.04 9.41996C302.9 8.99996 302.62 8.71996 301.92 8.71996H294.22C286.52 8.71996 287.36 0.459961 285.96 0.459961C284.56 0.459961 285.4 8.71996 277.7 8.71996H270C269.3 8.71996 269.02 8.99996 268.88 9.41996C268.46 10.54 264.54 38.54 264.54 42.74C264.54 43.44 265.1 44 265.8 44H279.66C280.36 44 280.92 44.56 280.92 45.26V70.46C280.92 71.16 280.36 71.72 279.66 71.72H265.8C265.1 71.72 264.54 72.28 264.54 72.98C264.54 77.18 268.46 105.18 268.88 106.3C269.02 106.72 269.3 107 270 107H277.7C285.4 107 284.56 115.26 285.96 115.26C287.36 115.26 286.52 107 294.22 107H301.92C302.62 107 302.9 106.72 303.04 106.3C303.46 105.18 307.38 77.18 307.38 72.98C307.38 72.28 306.82 71.72 306.12 71.72H292.26C291.56 71.72 291 71.16 291 70.46V45.26C291 44.56 291.56 44 292.26 44Z" fill="#FF1C31"/>
<path d="M384.312 55.9H360.792C360.092 55.9 359.532 56.46 359.532 57.16V62.2C359.532 62.9 360.092 63.46 360.792 63.46H374.652C375.352 63.46 375.912 64.02 375.912 64.72V65.84C375.912 69.34 373.112 71.72 369.612 71.72H331.812C327.752 71.72 324.112 66.12 324.112 60.8V54.92C324.112 49.6 327.612 44 331.812 44H368.632C373.112 44 375.912 46.38 375.912 49.88C375.912 50.58 376.472 51.14 377.172 51.14H384.452C385.152 51.14 385.712 50.58 385.712 49.88C385.712 49.88 386.272 45.54 386.272 42.74C386.272 19.92 381.232 8.71996 370.732 8.71996H359.112C351.412 8.71996 352.252 0.459961 350.852 0.459961C349.452 0.459961 350.292 8.71996 342.592 8.71996H329.572C319.072 8.71996 314.032 19.92 314.032 42.74V72.98C314.032 95.8 319.072 107 329.572 107H342.592C350.292 107 349.452 115.26 350.852 115.26C352.252 115.26 351.412 107 359.112 107H370.732C381.232 107 386.272 95.8 386.272 72.98C386.272 65 385.572 57.16 385.572 57.16C385.572 56.46 385.012 55.9 384.312 55.9Z" fill="#FF1C31"/>
<path d="M484.476 9.41996C484.336 8.99996 484.056 8.71996 483.356 8.71996H475.656C467.956 8.71996 468.796 0.459961 467.396 0.459961C465.996 0.459961 466.836 8.71996 459.136 8.71996H451.436C450.736 8.71996 450.456 8.99996 450.316 9.41996C449.896 10.54 445.976 38.54 445.976 42.74C445.976 43.44 446.536 44 447.236 44H461.096C461.796 44 462.356 44.56 462.356 45.26V70.46C462.356 71.16 461.796 71.72 461.096 71.72H453.256C452.136 71.72 451.576 71.16 451.576 71.16L433.656 45.96C433.656 45.96 433.096 45.12 433.096 44.56C433.096 44.28 433.236 44 433.936 44H434.636C435.336 44 435.896 43.44 435.896 42.74C435.896 38.54 431.976 10.54 431.556 9.41996C431.416 8.99996 431.136 8.71996 430.436 8.71996H422.736C415.036 8.71996 415.876 0.459961 414.476 0.459961C413.076 0.459961 413.916 8.71996 406.216 8.71996H398.516C397.816 8.71996 397.536 8.99996 397.396 9.41996C396.976 10.54 393.056 38.54 393.056 42.74C393.056 43.44 393.616 44 394.316 44H408.176C408.876 44 409.436 44.56 409.436 45.26V70.46C409.436 71.16 408.876 71.72 408.176 71.72H394.316C393.616 71.72 393.056 72.28 393.056 72.98C393.056 77.18 396.976 105.18 397.396 106.3C397.536 106.72 397.816 107 398.516 107H406.216C413.916 107 413.076 115.26 414.476 115.26C415.876 115.26 415.036 107 422.736 107H430.016C430.716 107 430.996 106.72 431.136 106.3C431.556 105.18 435.336 77.18 435.336 72.98C435.336 72.28 434.776 71.72 434.076 71.72H420.776C420.076 71.72 419.516 71.16 419.516 70.46V46.1C419.516 45.54 419.796 45.26 420.076 45.26C420.776 45.26 421.476 46.38 421.476 46.38L463.336 104.9C464.176 106.16 465.716 107 467.396 107C470.196 107 472.436 104.76 472.436 101.96V45.26C472.436 44.56 472.996 44 473.696 44H487.556C488.256 44 488.816 43.44 488.816 42.74C488.816 38.54 484.896 10.54 484.476 9.41996Z" fill="#FF1C31"/>
</svg>

<svg xmlns="http://www.w3.org/2000/svg" fill="none" viewBox="0 0 489 116"><path fill="#FF1C31" d="M68.99 8.72h-3.64c-7.7 0-6.86-8.26-8.26-8.26-1.4 0-.56 8.26-8.26 8.26H30.49c-7.7 0-6.86-8.26-8.26-8.26-1.4 0-.56 8.26-8.26 8.26h-7.7c-.7 0-.98.28-1.12.7C4.73 10.54.81 38.54.81 42.74c0 .7.56 1.26 1.26 1.26h13.86c.7 0 1.26.56 1.26 1.26v25.2c0 .7-.56 1.26-1.26 1.26H2.07c-.7 0-1.26.56-1.26 1.26 0 4.2 3.92 32.2 4.34 33.32.14.42.42.7 1.12.7h7.7c7.7 0 6.86 8.26 8.26 8.26 1.4 0 .56-8.26 8.26-8.26h18.34c7.7 0 6.86 8.26 8.26 8.26 1.4 0 .56-8.26 8.26-8.26h3.64c10.5 0 15.54-11.2 15.54-34.02V42.74c0-22.82-5.04-34.02-15.54-34.02zm5.46 52.08c0 5.32-3.78 9.8-8.68 10.92H28.53c-.7 0-1.26-.56-1.26-1.26v-25.2c0-.7.56-1.26 1.26-1.26h37.24c4.9 1.12 8.68 5.6 8.68 10.92v5.88zM123.097 8.72c-7.7 0-6.86-8.26-8.26-8.26-1.4 0-.56 8.26-8.26 8.26h-9.8c-.7 0-.98.28-1.12.7-.42 1.12-4.34 29.12-4.34 33.32 0 .7.56 1.26 1.26 1.26h13.86c.7 0 1.26.56 1.26 1.26v25.2c0 .7-.56 1.26-1.26 1.26h-13.86c-.7 0-1.26.56-1.26 1.26 0 4.2 3.92 32.2 4.34 33.32.14.42.42.7 1.12.7h9.8c7.7 0 6.86 8.26 8.26 8.26 1.4 0 .56-8.26 8.26-8.26h19.6c7.7 0 6.86 8.26 8.26 8.26 1.4 0 .56-8.26 8.26-8.26h9.8c.7 0 .98-.28 1.12-.7.42-1.12 4.34-28.42 4.34-32.62 0-4.2-.56-7.84-.56-7.84 0-.7-.56-1.26-1.26-1.26h-7.28c-.7 0-1.26.56-1.26 1.26 0 3.5-2.8 5.88-6.3 5.88h-38.78c-.7 0-1.26-.56-1.26-1.26V62.9c0-.7.56-1.26 1.26-1.26h11.2c.7 0 1.26.56 1.26 1.26v1.26c0 .7.56 1.26 1.26 1.26h18.9c.7 0 1.26-.56 1.26-1.26v-12.6c0-.7-.56-1.26-1.26-1.26h-18.9c-.7 0-1.26.56-1.26 1.26v1.26c0 .7-.56 1.26-1.26 1.26h-11.2c-.7 0-1.26-.56-1.26-1.26v-7.56c0-.7.56-1.26 1.26-1.26h38.78c3.5 0 6.3 2.38 6.3 5.88 0 .7.56 1.26 1.26 1.26h7.28c.7 0 1.26-.56 1.26-1.26 0 0 .56-3.64.56-7.84 0-4.2-3.92-31.5-4.34-32.62-.14-.42-.42-.7-1.12-.7h-9.8c-7.7 0-6.86-8.26-8.26-8.26-1.4 0-.56 8.26-8.26 8.26h-19.6zM201.575 47.78c0-2.1 2.1-3.78 4.2-3.78h32.76c3.5 0 6.3 2.38 6.3 5.88 0 .7.56 1.26 1.26 1.26h7.28c.7 0 1.26-.56 1.26-1.26v-7.14c0-22.82-5.04-34.02-15.54-34.02h-12.04c-7.56 0-6.86-8.26-8.26-8.26-1.4 0-.7 8.26-8.26 8.26h-12.32c-10.5 0-15.54 8.68-15.54 31.5 0 34.02 56.56 12.6 56.56 27.72 0 2.1-1.68 3.78-3.78 3.78h-37.94c-3.5 0-6.3-2.38-6.3-5.88 0-.7-.56-1.26-1.26-1.26h-7.28c-.7 0-1.26.56-1.26 1.26v7.14c0 22.82 5.04 34.02 15.54 34.02h13.72c7.56 0 6.86 8.26 8.26 8.26 1.4 0 .7-8.26 8.26-8.26h15.4c10.5 0 15.54-8.12 15.54-30.94v-.56c0-34.02-56.56-12.6-56.56-27.72zM292.26 44h13.86c.7 0 1.26-.56 1.26-1.26 0-4.2-3.92-32.2-4.34-33.32-.14-.42-.42-.7-1.12-.7h-7.7c-7.7 0-6.86-8.26-8.26-8.26-1.4 0-.56 8.26-8.26 8.26H270c-.7 0-.98.28-1.12.7-.42 1.12-4.34 29.12-4.34 33.32 0 .7.56 1.26 1.26 1.26h13.86c.7 0 1.26.56 1.26 1.26v25.2c0 .7-.56 1.26-1.26 1.26H265.8c-.7 0-1.26.56-1.26 1.26 0 4.2 3.92 32.2 4.34 33.32.14.42.42.7 1.12.7h7.7c7.7 0 6.86 8.26 8.26 8.26 1.4 0 .56-8.26 8.26-8.26h7.7c.7 0 .98-.28 1.12-.7.42-1.12 4.34-29.12 4.34-33.32 0-.7-.56-1.26-1.26-1.26h-13.86c-.7 0-1.26-.56-1.26-1.26v-25.2c0-.7.56-1.26 1.26-1.26zM384.312 55.9h-23.52c-.7 0-1.26.56-1.26 1.26v5.04c0 .7.56 1.26 1.26 1.26h13.86c.7 0 1.26.56 1.26 1.26v1.12c0 3.5-2.8 5.88-6.3 5.88h-37.8c-4.06 0-7.7-5.6-7.7-10.92v-5.88c0-5.32 3.5-10.92 7.7-10.92h36.82c4.48 0 7.28 2.38 7.28 5.88 0 .7.56 1.26 1.26 1.26h7.28c.7 0 1.26-.56 1.26-1.26 0 0 .56-4.34.56-7.14 0-22.82-5.04-34.02-15.54-34.02h-11.62c-7.7 0-6.86-8.26-8.26-8.26-1.4 0-.56 8.26-8.26 8.26h-13.02c-10.5 0-15.54 11.2-15.54 34.02v30.24c0 22.82 5.04 34.02 15.54 34.02h13.02c7.7 0 6.86 8.26 8.26 8.26 1.4 0 .56-8.26 8.26-8.26h11.62c10.5 0 15.54-11.2 15.54-34.02 0-7.98-.7-15.82-.7-15.82 0-.7-.56-1.26-1.26-1.26zM484.476 9.42c-.14-.42-.42-.7-1.12-.7h-7.7c-7.7 0-6.86-8.26-8.26-8.26-1.4 0-.56 8.26-8.26 8.26h-7.7c-.7 0-.98.28-1.12.7-.42 1.12-4.34 29.12-4.34 33.32 0 .7.56 1.26 1.26 1.26h13.86c.7 0 1.26.56 1.26 1.26v25.2c0 .7-.56 1.26-1.26 1.26h-7.84c-1.12 0-1.68-.56-1.68-.56l-17.92-25.2s-.56-.84-.56-1.4c0-.28.14-.56.84-.56h.7c.7 0 1.26-.56 1.26-1.26 0-4.2-3.92-32.2-4.34-33.32-.14-.42-.42-.7-1.12-.7h-7.7c-7.7 0-6.86-8.26-8.26-8.26-1.4 0-.56 8.26-8.26 8.26h-7.7c-.7 0-.98.28-1.12.7-.42 1.12-4.34 29.12-4.34 33.32 0 .7.56 1.26 1.26 1.26h13.86c.7 0 1.26.56 1.26 1.26v25.2c0 .7-.56 1.26-1.26 1.26h-13.86c-.7 0-1.26.56-1.26 1.26 0 4.2 3.92 32.2 4.34 33.32.14.42.42.7 1.12.7h7.7c7.7 0 6.86 8.26 8.26 8.26 1.4 0 .56-8.26 8.26-8.26h7.28c.7 0 .98-.28 1.12-.7.42-1.12 4.2-29.12 4.2-33.32 0-.7-.56-1.26-1.26-1.26h-13.3c-.7 0-1.26-.56-1.26-1.26V46.1c0-.56.28-.84.56-.84.7 0 1.4 1.12 1.4 1.12l41.86 58.52c.84 1.26 2.38 2.1 4.06 2.1 2.8 0 5.04-2.24 5.04-5.04v-56.7c0-.7.56-1.26 1.26-1.26h13.86c.7 0 1.26-.56 1.26-1.26 0-4.2-3.92-32.2-4.34-33.32z"/></svg>
